**kern	**kern	**dynam
*part1	*part1	*part1
*staff2	*staff1	*
*I"Piano	*	*
*clefF4	*clefG2	*
*k[b-]	*k[b-]	*
=1	=1	=1
2.BBB- 2.BB-	(4F<	.
.	2D<)	.
*	*clefF4	*
=	=	=
*	*^	*
2.BBBn 2.BBn	2.G	(4F	.
.	.	2D)	.
=	=	=	=
2.CC	2.G	(4F	.
.	.	2C)	.
=	=	=	=
2.CC	2.B-	(4E	.
.	.	2C)	.
*	*v	*v	*
=	=	=
(4.FF	([2.F [2.A	>
8CC	.	.
4DD	.	.
=	=	=
4CC	2F] 2A]	.
4FFF	.	.
4GGG) 4GG	4E 4G	.
=	=	=
2.AAA 2.AA	2.D 2.F	.
=	=	=
[2.AAA [2.AA	[2.C#X) [2.E	.
=	=	=
2AAA] 2AA]	2C#] 2E]	]
*	*clefG2	*
!	!LO:TX:b:i:t=poco	!
4r	4a	f
=	=	=
*-	*-	*-
!!!system-decoration: {(s1,s2)}
!!!RDF**kern: < = below
